assets/picket_square_logo.svg

<svg fill="none" height="750" viewBox="0 0 750 750" width="750" xmlns="http://www.w3.org/2000/svg"><path d="m113 609h525v50h-525z" fill="#c4c4c4"/><path d="m113 168h525v50h-525z" fill="#c4c4c4"/><g fill="#f3f3f3"><path d="m638 50h100v698c0 1.105-.895 2-2 2h-96c-1.105 0-2-.895-2-2z"/><rect height="35" rx="5" width="125" x="625" y="15"/><path d="m643 5c0-2.76142 2.239-5 5-5h80c2.761 0 5 2.23858 5 5v10h-90z"/><path d="m13 50h100v698c0 1.105-.895 2-2 2h-96c-1.1046 0-2-.895-2-2z"/><rect height="35" rx="5" width="125" y="15"/><path d="m18 5c0-2.76142 2.2386-5 5-5h80c2.761 0 5 2.23858 5 5v10h-90z"/><path d="m529 72.5h75v648c0 1.105-.895 2-2 2h-71c-1.105 0-2-.895-2-2z"/><path d="m529 72.5 35.535-30.7972c1.128-.9772 2.802-.9772 3.93 0l35.535 30.7972z"/><path d="m433 122.5h75v598c0 1.105-.895 2-2 2h-71c-1.105 0-2-.895-2-2z"/><path d="m433 122.5 35.535-30.7972c1.128-.9772 2.802-.9772 3.93 0l35.535 30.7972z"/><path d="m337 147.5h75v573c0 1.105-.895 2-2 2h-71c-1.105 0-2-.895-2-2z"/><path d="m337 147.5 35.535-30.797c1.128-.977 2.802-.977 3.93 0l35.535 30.797z"/><path d="m241 122.5h75v598c0 1.105-.895 2-2 2h-71c-1.105 0-2-.895-2-2z"/><path d="m241 122.5 35.535-30.7972c1.128-.9772 2.802-.9772 3.93 0l35.535 30.7972z"/><path d="m145 72.5h75v648c0 1.105-.895 2-2 2h-71c-1.105 0-2-.895-2-2z"/><path d="m145 72.5 35.535-30.7972c1.128-.9772 2.802-.9772 3.93 0l35.535 30.7972z"/></g></svg>

<svg width="750" height="750" viewBox="0 0 750 750" fill="none" xmlns="http://www.w3.org/2000/svg">
<rect x="113" y="609" width="525" height="50" fill="#C4C4C4"/>
<rect x="113" y="168" width="525" height="50" fill="#C4C4C4"/>
<path d="M638 50H738V748C738 749.105 737.105 750 736 750H640C638.895 750 638 749.105 638 748V50Z" fill="#F3F3F3"/>
<rect x="625" y="15" width="125" height="35" rx="5" fill="#F3F3F3"/>
<path d="M643 5C643 2.23858 645.239 0 648 0H728C730.761 0 733 2.23858 733 5V15H643V5Z" fill="#F3F3F3"/>
<path d="M13 50H113V748C113 749.105 112.105 750 111 750H15C13.8954 750 13 749.105 13 748V50Z" fill="#F3F3F3"/>
<rect y="15" width="125" height="35" rx="5" fill="#F3F3F3"/>
<path d="M18 5C18 2.23858 20.2386 0 23 0H103C105.761 0 108 2.23858 108 5V15H18V5Z" fill="#F3F3F3"/>
<path d="M529 72.5H604V720.5C604 721.605 603.105 722.5 602 722.5H531C529.895 722.5 529 721.605 529 720.5V72.5Z" fill="#F3F3F3"/>
<path d="M529 72.5L564.535 41.7028C565.663 40.7256 567.337 40.7256 568.465 41.7028L604 72.5H529Z" fill="#F3F3F3"/>
<path d="M433 122.5H508V720.5C508 721.605 507.105 722.5 506 722.5H435C433.895 722.5 433 721.605 433 720.5V122.5Z" fill="#F3F3F3"/>
<path d="M433 122.5L468.535 91.7028C469.663 90.7256 471.337 90.7256 472.465 91.7028L508 122.5H433Z" fill="#F3F3F3"/>
<path d="M337 147.5H412V720.5C412 721.605 411.105 722.5 410 722.5H339C337.895 722.5 337 721.605 337 720.5V147.5Z" fill="#F3F3F3"/>
<path d="M337 147.5L372.535 116.703C373.663 115.726 375.337 115.726 376.465 116.703L412 147.5H337Z" fill="#F3F3F3"/>
<path d="M241 122.5H316V720.5C316 721.605 315.105 722.5 314 722.5H243C241.895 722.5 241 721.605 241 720.5V122.5Z" fill="#F3F3F3"/>
<path d="M241 122.5L276.535 91.7028C277.663 90.7256 279.337 90.7256 280.465 91.7028L316 122.5H241Z" fill="#F3F3F3"/>
<path d="M145 72.5H220V720.5C220 721.605 219.105 722.5 218 722.5H147C145.895 722.5 145 721.605 145 720.5V72.5Z" fill="#F3F3F3"/>
<path d="M145 72.5L180.535 41.7028C181.663 40.7256 183.337 40.7256 184.465 41.7028L220 72.5H145Z" fill="#F3F3F3"/>
</svg>
